resources/motor_order/tri.svg

<?xml version="1.0" encoding="UTF-8"?>
<!-- Public domain (CC-BY-SA if you or your laws insist), generated by Jonathan Hudson's svg_model_motors.rb -->
<svg xmlns="http://www.w3.org/2000/svg" xmlns:xlink="http://www.w3.org/1999/xlink" width="200pt" height="200pt" viewBox="0 0 200 200" version="1.1">
<defs>
<g>
<symbol overflow="visible" id="glyph0-0">
<path style="stroke:none;" d=""/>
</symbol>
<symbol overflow="visible" id="glyph0-1">
<path style="stroke:none;" d="M 2.679688 -13.863281 L 2.679688 -15.75 C 4.457031 -15.921875 5.695312 -16.210938 6.398438 -16.617188 C 7.101562 -17.023438 7.625 -17.984375 7.96875 -19.496094 L 9.914062 -19.496094 L 9.914062 0 L 7.289062 0 L 7.289062 -13.863281 Z M 2.679688 -13.863281 "/>
</symbol>
<symbol overflow="visible" id="glyph0-2">
<path style="stroke:none;" d="M 1.921875 -4.402344 C 2.527344 -5.652344 3.710938 -6.785156 5.46875 -7.804688 L 8.09375 -9.324219 C 9.269531 -10.007812 10.09375 -10.589844 10.570312 -11.074219 C 11.316406 -11.832031 11.6875 -12.695312 11.6875 -13.671875 C 11.6875 -14.8125 11.347656 -15.714844 10.664062 -16.386719 C 9.980469 -17.054688 9.070312 -17.390625 7.929688 -17.390625 C 6.242188 -17.390625 5.078125 -16.753906 4.429688 -15.476562 C 4.082031 -14.792969 3.890625 -13.84375 3.855469 -12.632812 L 1.351562 -12.632812 C 1.378906 -14.335938 1.695312 -15.726562 2.296875 -16.804688 C 3.363281 -18.699219 5.246094 -19.648438 7.945312 -19.648438 C 10.1875 -19.648438 11.824219 -19.039062 12.859375 -17.828125 C 13.894531 -16.617188 14.410156 -15.265625 14.410156 -13.78125 C 14.410156 -12.214844 13.859375 -10.875 12.757812 -9.761719 C 12.117188 -9.113281 10.972656 -8.332031 9.324219 -7.410156 L 7.453125 -6.371094 C 6.558594 -5.878906 5.855469 -5.410156 5.34375 -4.960938 C 4.433594 -4.167969 3.859375 -3.289062 3.625 -2.324219 L 14.3125 -2.324219 L 14.3125 0 L 0.875 0 C 0.964844 -1.6875 1.316406 -3.152344 1.921875 -4.402344 Z M 1.921875 -4.402344 "/>
</symbol>
<symbol overflow="visible" id="glyph0-3">
<path style="stroke:none;" d="M 2.234375 -1.375 C 1.191406 -2.644531 0.671875 -4.191406 0.671875 -6.015625 L 3.242188 -6.015625 C 3.351562 -4.75 3.585938 -3.828125 3.953125 -3.253906 C 4.589844 -2.222656 5.742188 -1.710938 7.410156 -1.710938 C 8.703125 -1.710938 9.742188 -2.054688 10.527344 -2.75 C 11.3125 -3.441406 11.703125 -4.335938 11.703125 -5.429688 C 11.703125 -6.777344 11.289062 -7.71875 10.464844 -8.257812 C 9.640625 -8.796875 8.496094 -9.0625 7.027344 -9.0625 C 6.863281 -9.0625 6.695312 -9.0625 6.527344 -9.058594 C 6.359375 -9.054688 6.1875 -9.046875 6.015625 -9.039062 L 6.015625 -11.210938 C 6.269531 -11.183594 6.484375 -11.164062 6.65625 -11.15625 C 6.832031 -11.148438 7.019531 -11.140625 7.21875 -11.140625 C 8.140625 -11.140625 8.894531 -11.289062 9.488281 -11.578125 C 10.527344 -12.089844 11.046875 -13 11.046875 -14.3125 C 11.046875 -15.289062 10.699219 -16.042969 10.007812 -16.570312 C 9.316406 -17.097656 8.507812 -17.363281 7.585938 -17.363281 C 5.945312 -17.363281 4.8125 -16.816406 4.183594 -15.722656 C 3.835938 -15.121094 3.640625 -14.265625 3.59375 -13.152344 L 1.164062 -13.152344 C 1.164062 -14.609375 1.453125 -15.851562 2.039062 -16.871094 C 3.039062 -18.695312 4.804688 -19.605469 7.328125 -19.605469 C 9.324219 -19.605469 10.867188 -19.160156 11.960938 -18.273438 C 13.054688 -17.382812 13.601562 -16.097656 13.601562 -14.410156 C 13.601562 -13.207031 13.28125 -12.230469 12.632812 -11.484375 C 12.230469 -11.019531 11.710938 -10.65625 11.074219 -10.390625 C 12.105469 -10.109375 12.910156 -9.5625 13.488281 -8.757812 C 14.066406 -7.949219 14.355469 -6.964844 14.355469 -5.796875 C 14.355469 -3.929688 13.742188 -2.40625 12.507812 -1.230469 C 11.277344 -0.0546875 9.535156 0.53125 7.273438 0.53125 C 4.957031 0.53125 3.277344 -0.101562 2.234375 -1.375 Z M 2.234375 -1.375 "/>
</symbol>
<symbol overflow="visible" id="glyph1-0">
<path style="stroke:none;" d=""/>
</symbol>
<symbol overflow="visible" id="glyph1-1">
<path style="stroke:none;" d="M 2.234375 -3.703125 C 2.269531 -3.050781 2.425781 -2.523438 2.695312 -2.117188 C 3.210938 -1.355469 4.121094 -0.976562 5.421875 -0.976562 C 6.003906 -0.976562 6.535156 -1.058594 7.015625 -1.226562 C 7.941406 -1.550781 8.40625 -2.128906 8.40625 -2.960938 C 8.40625 -3.585938 8.210938 -4.03125 7.820312 -4.296875 C 7.425781 -4.558594 6.804688 -4.785156 5.960938 -4.976562 L 4.40625 -5.328125 C 3.390625 -5.558594 2.671875 -5.808594 2.25 -6.085938 C 1.519531 -6.566406 1.15625 -7.28125 1.15625 -8.234375 C 1.15625 -9.265625 1.511719 -10.113281 2.226562 -10.773438 C 2.941406 -11.433594 3.949219 -11.765625 5.257812 -11.765625 C 6.460938 -11.765625 7.484375 -11.476562 8.324219 -10.894531 C 9.164062 -10.3125 9.585938 -9.386719 9.585938 -8.109375 L 8.125 -8.109375 C 8.046875 -8.722656 7.878906 -9.195312 7.625 -9.523438 C 7.152344 -10.121094 6.347656 -10.421875 5.210938 -10.421875 C 4.292969 -10.421875 3.636719 -10.230469 3.234375 -9.84375 C 2.832031 -9.457031 2.632812 -9.011719 2.632812 -8.5 C 2.632812 -7.9375 2.867188 -7.527344 3.335938 -7.265625 C 3.644531 -7.097656 4.339844 -6.890625 5.421875 -6.640625 L 7.03125 -6.273438 C 7.808594 -6.097656 8.40625 -5.855469 8.828125 -5.546875 C 9.558594 -5.011719 9.921875 -4.230469 9.921875 -3.210938 C 9.921875 -1.941406 9.460938 -1.03125 8.535156 -0.484375 C 7.609375 0.0625 6.535156 0.335938 5.3125 0.335938 C 3.886719 0.335938 2.769531 -0.0273438 1.960938 -0.757812 C 1.152344 -1.480469 0.757812 -2.464844 0.773438 -3.703125 Z M 2.234375 -3.703125 "/>
</symbol>
<symbol overflow="visible" id="glyph1-2">
<path style="stroke:none;" d="M 1.53125 -7.921875 L 1.53125 -9 C 2.546875 -9.097656 3.253906 -9.265625 3.65625 -9.496094 C 4.058594 -9.726562 4.355469 -10.277344 4.554688 -11.140625 L 5.664062 -11.140625 L 5.664062 0 L 4.164062 0 L 4.164062 -7.921875 Z M 1.53125 -7.921875 "/>
</symbol>
</g>
</defs>
<g id="surface6">
<path style="fill:none;stroke-width:28;stroke-linecap:round;stroke-linejoin:round;stroke:rgb(72.941176%,72.941176%,72.941176%);stroke-opacity:1;stroke-miterlimit:10;" d="M 40 40 L 160 40 M 100 40 L 100 160 "/>
<path style="fill:none;stroke-width:3;stroke-linecap:butt;stroke-linejoin:miter;stroke:rgb(255,187,0);stroke-opacity:1;stroke-miterlimit:10;" d="M 128 160 C 128 175.464844 115.464844 188 100 188 C 84.535156 188 72 175.464844 72 160 C 72 144.535156 84.535156 132 100 132 C 115.464844 132 128 144.535156 128 160 M 80.199219 140.199219 L 80.199219 123.398438 M 80.199219 140.199219 L 97 142.214844 "/>
<g style="fill:rgb(0%,0%,0%);fill-opacity:1;">
  <use xlink:href="#glyph0-1" x="93" y="167"/>
</g>
<path style="fill:none;stroke-width:3;stroke-linecap:butt;stroke-linejoin:miter;stroke:rgb(255,187,0);stroke-opacity:1;stroke-miterlimit:10;" d="M 188 40 C 188 55.464844 175.464844 68 160 68 C 144.535156 68 132 55.464844 132 40 C 132 24.535156 144.535156 12 160 12 C 175.464844 12 188 24.535156 188 40 M 140 20 L 142 37 M 140 20 L 123 20 "/>
<g style="fill:rgb(0%,0%,0%);fill-opacity:1;">
  <use xlink:href="#glyph0-2" x="153" y="47"/>
</g>
<path style="fill:none;stroke-width:3;stroke-linecap:butt;stroke-linejoin:miter;stroke:rgb(255,187,0);stroke-opacity:1;stroke-miterlimit:10;" d="M 68 40 C 68 55.464844 55.464844 68 40 68 C 24.535156 68 12 55.464844 12 40 C 12 24.535156 24.535156 12 40 12 C 55.464844 12 68 24.535156 68 40 M 59.800781 20.199219 L 57.785156 37 M 59.800781 20.199219 L 76.601562 20.199219 "/>
<g style="fill:rgb(0%,0%,0%);fill-opacity:1;">
  <use xlink:href="#glyph0-3" x="33" y="47"/>
</g>
<path style="fill:none;stroke-width:3;stroke-linecap:butt;stroke-linejoin:miter;stroke:rgb(0%,0%,0%);stroke-opacity:1;stroke-miterlimit:10;" d="M 140 140 L 168 140 L 168 168 L 140 168 Z M 140 140 "/>
<g style="fill:rgb(0%,0%,0%);fill-opacity:1;">
  <use xlink:href="#glyph1-1" x="144" y="160"/>
  <use xlink:href="#glyph1-2" x="154.671875" y="160"/>
</g>
<path style="fill:none;stroke-width:12;stroke-linecap:butt;stroke-linejoin:bevel;stroke:rgb(98.039216%,2.745098%,0%);stroke-opacity:1;stroke-miterlimit:10;" d="M 100 70 L 100 110 "/>
<path style=" stroke:none;fill-rule:nonzero;fill:rgb(98.039216%,2.745098%,0%);fill-opacity:1;" d="M 100 65 L 85 80 L 115 80 L 100 65 "/>
</g>
</svg>

<?xml version="1.0" encoding="utf-8"?>
<!-- Generator: Adobe Illustrator 21.1.0, SVG Export Plug-In . SVG Version: 6.00 Build 0)  -->
<svg version="1.1" id="Layer_1" xmlns="http://www.w3.org/2000/svg" xmlns:xlink="http://www.w3.org/1999/xlink" x="0px" y="0px"
	 viewBox="0 0 200 200" style="enable-background:new 0 0 200 200;" xml:space="preserve">
<style type="text/css">
	.st0{fill:none;stroke:#BABABA;stroke-width:28;stroke-linecap:round;stroke-linejoin:round;stroke-miterlimit:10;}
	.st1{fill:none;stroke:#9160BA;stroke-width:3;stroke-miterlimit:10;}
	.st2{fill:none;stroke:#FA0700;stroke-width:12;stroke-linejoin:bevel;stroke-miterlimit:10;}
	.st3{fill:#FA0700;}
	.st4{font-family:'MyriadPro-Regular';}
	.st5{font-size:23px;}
</style>
<g id="surface6">
	<path class="st0" d="M40,40h120 M100,40v120"/>
	<path class="st1" d="M128,160c0,15.5-12.5,28-28,28s-28-12.5-28-28s12.5-28,28-28S128,144.5,128,160 M80.2,140.2v-16.8 M80.2,140.2
		l16.8,2"/>
	<path class="st1" d="M188,40c0,15.5-12.5,28-28,28s-28-12.5-28-28s12.5-28,28-28S188,24.5,188,40 M140,20l2,17 M140,20h-17"/>
	<path class="st1" d="M68,40c0,15.5-12.5,28-28,28S12,55.5,12,40s12.5-28,28-28S68,24.5,68,40 M59.8,20.2l-2,16.8 M59.8,20.2h16.8"
		/>
	<path class="st2" d="M100,70v40"/>
	<path class="st3" d="M100,65L85,80h30L100,65"/>
	<text transform="matrix(1 0 0 1 94 166)" class="st4 st5">1</text>
	<text transform="matrix(1 0 0 1 34 47.1721)" class="st4 st5">3</text>
	<text transform="matrix(1 0 0 1 154 47.1721)" class="st4 st5">2</text>
</g>
</svg>
